X: 20141
T: LADY BAIRD'S DELIGHT
O: Reel.--Scottish.
%R: reel
B: W. Hamilton "Universal Tune-Book" Vol. 2 Glasgow 1846 p.14 #1
S: http://s3-eu-west-1.amazonaws.com/itma.dl.printmaterial/book_pdfs/hamiltonvol2web.pdf
Z: 2016 John Chambers <jc:trillian.mit.edu>
M: C|
L: 1/8
K: A
% - - - - - - - - - - - - - - - - - - - - - - - - -
a |\
eccB ABAE | FAEA FAEa |\
eccB AGAB | cee^d e2e :|\
|: g |\
fddB cdec | dBBG ABcE |\
FAEA FAEd | {d}cB/A/ {c}BA/G/ A2A :|
% - - - - - - - - - - - - - - - - - - - - - - - - -
